X:2
T:U4 Schottisch
R:Bairisch Polka
C:Hermann Fritz
A:Wien, U-Bahn
P:2
M:2/4
L:1/16
K:G
GGG2 ddd2|g2g2e4|dddd d2c2|BBBB B2A2|\
GGG2 ddd2|g2g2e4|dddd dcBA|G2G2G4:|
AAAA B2A2|cccc d2c2|BAGF GccB|A2AG GFFG|\
AAAA B2A2|cccc d2c2|BAGF GccB|A4 A4|
"oder Variante:"
DAAD B2A2|DccD d2c2|BAGF GccB|A2AG GFFG|\
DAAD B2A2|DccD d2c2|BAGF GccB|A4 A4|
|:GGG2 ddd2|g2g2e4|dddd d2c2|BBBB B2A2|\
GGG2 ddd2|g2g2e4|dddd dcBA|G2G2G4:|
